src/assets/metronic/worbby/global/img/icon-worbbior.svg

<?xml version="1.0" encoding="UTF-8"?>
<svg width="150px" height="150px" viewBox="0 0 150 150" version="1.1" xmlns="http://www.w3.org/2000/svg" xmlns:xlink="http://www.w3.org/1999/xlink">
    <!-- Generator: Sketch 42 (36781) - http://www.bohemiancoding.com/sketch -->
    <title>icon-worbbior-large</title>
    <desc>Created with Sketch.</desc>
    <defs>
        <path d="M80.1775975,71.4322749 C78.9541821,71.9216411 77.0972512,72.21875 75.125,72.21875 C73.1527488,72.21875 71.2958179,71.9216411 70.0724025,71.4322749 C69.8030428,71.324531 69.594015,71.2193797 69.4492652,71.1316785 C69.1544727,69.3548229 67.6104543,68 65.75,68 C63.6789322,68 62,69.6789322 62,71.75 C62,82.375 88.25,82.375 88.25,71.75 C88.25,69.6789322 86.5710678,68 84.5,68 C82.6395457,68 81.0955273,69.3548229 80.8007348,71.1316785 C80.655985,71.2193797 80.4469572,71.324531 80.1775975,71.4322749 Z" id="path-1"></path>
        <mask id="mask-2" maskContentUnits="userSpaceOnUse" maskUnits="objectBoundingBox" x="0" y="0" width="26.25" height="11.71875" fill="white">
            <use xlink:href="#path-1"></use>
        </mask>
        <polygon id="path-3" points="5.37669316 7.62191713 5.37669316 0.56268636 0.312664643 0.56268636 0.312664643 7.62191713"></polygon>
        <linearGradient x1="0%" y1="49.9979293%" x2="99.9874969%" y2="49.9979293%" id="linearGradient-5">
            <stop stop-color="#FFB247" offset="0%"></stop>
            <stop stop-color="#FFCB33" offset="100%"></stop>
        </linearGradient>
    </defs>
    <g id="Desktop" stroke="none" stroke-width="1" fill="none" fill-rule="evenodd">
        <g id="Desktop-Home" transform="translate(-625.000000, -3767.000000)">
            <g id="icon-worbbior-large" transform="translate(625.000000, 3767.000000)">
                <ellipse id="Oval" fill="#F3F3F5" cx="100" cy="100" rx="50" ry="50"></ellipse>
                <path d="M90.554778,117.538713 C90.488583,117.778723 88.5358301,123.658956 75.0320475,123.658956 C61.3958747,123.658956 59.2445368,117.028693 59.0790493,116.518673 L54.5446909,103.138142 C56.2657612,100.678045 57.9206365,97.2879102 58.7149767,92.8477342 C63.0507501,94.9778187 68.3463511,96.3878746 74.8334624,96.3878746 C81.4529637,96.3878746 86.8147598,94.9478175 91.2167282,92.7277295 C92.0110683,97.2279079 93.6990412,100.678045 95.4201115,103.168143 L90.554778,117.538713 Z M48.1237746,18.0847703 C51.7645003,12.9545669 58.3509041,11.9645276 68.4787411,11.9645276 L73.9398297,11.9945288 C89.2639753,11.9945288 98.9615447,10.3144622 103.893073,9.11441465 C105.448656,12.504549 106.971141,19.314819 100.980493,28.4651818 C99.6234949,30.2052508 92.2758484,32.935359 80.9234036,33.1753685 C72.980002,33.3553757 66.0295257,32.2153305 62.3226049,30.1152472 C61.2634847,29.5152234 59.972682,29.3352163 58.7811717,29.605227 C57.5896615,29.8752377 56.5305413,30.5952662 55.9347861,31.5853055 C55.9016886,31.6453079 53.0884006,35.7554708 46.8660693,37.0155208 C45.7407541,31.4953019 44.9133164,22.5849487 48.1237746,18.0847703 Z M74.8996574,88.1075463 C56.9608089,88.1075463 51.2018427,73.796979 49.5469674,67.6467351 C47.7266045,60.8964675 47.5280195,50.7260643 47.5942145,45.3258502 C54.1806183,44.335811 58.6487817,41.2456885 61.1972897,38.8155921 C66.3935982,40.7056671 73.4433671,41.6657051 81.1550862,41.4556968 C88.00627,41.3056909 95.8172816,40.225648 101.609345,37.8555541 C101.80793,39.0856028 102.039613,40.3456528 102.172003,41.6057027 C102.172003,41.7557087 102.833953,58.0763557 100.285445,67.6467351 C98.5974721,73.7669778 92.8054085,88.1075463 74.8996574,88.1075463 Z M63.5,58 C65.9852814,58 68,55.9852814 68,53.5 C68,51.0147186 65.9852814,49 63.5,49 C61.0147186,49 59,51.0147186 59,53.5 C59,55.9852814 61.0147186,58 63.5,58 Z M86.5,58 C88.9852814,58 91,55.9852814 91,53.5 C91,51.0147186 88.9852814,49 86.5,49 C84.0147186,49 82,51.0147186 82,53.5 C82,55.9852814 84.0147186,58 86.5,58 Z M99.9213724,87.3575166 C99.9213724,87.0275035 99.7889824,86.7574928 99.7227874,86.4574809 C105.680339,80.3072371 108.228847,72.9269445 109.122479,69.5968124 C112.001962,58.916389 111.306915,41.9957182 111.24072,41.0356802 C110.876647,37.6755469 110.313989,34.4654197 109.552747,31.5253031 C120.243241,14.0346097 110.016112,2.06413514 109.585844,1.55411492 C108.328139,0.11405783 106.110606,-0.39596239 104.257146,0.324066155 C104.157853,0.354067345 94.9567464,3.71420056 73.9398297,3.71420056 L68.4787411,3.68419937 C58.3178066,3.68419937 46.9322644,4.46423029 40.4120556,13.6145931 C34.1897243,22.3749404 37.3670849,37.3155327 38.4593027,41.5757016 C38.3600101,43.9757967 37.9297426,59.546414 40.6106406,69.5968124 C41.5373708,72.9869468 44.1520738,80.4872442 50.2751125,86.6974904 C50.242015,86.9074987 50.1427225,87.117507 50.1427225,87.3575166 C50.1427225,96.927896 44.946414,101.158064 44.2844638,101.668084 C1.25770525,124.708997 0,143.759753 0,145.859836 C0,148.109925 1.9858504,149.909996 4.46816339,149.969999 C7.0166714,149.969999 9.0356193,148.169927 9.13491182,145.949839 C9.13491182,145.799833 10.3595196,130.019208 47.1970444,109.738404 L50.2089175,118.648757 C50.3413075,119.188779 53.7172532,131.969285 74.9989499,131.969285 C94.6257714,131.969285 98.7298622,121.708878 99.3587148,119.668798 L102.767758,109.708403 C139.274308,129.749197 140.829891,145.46982 140.862988,145.919838 C140.929183,148.169927 142.948131,150 145.430444,150 C147.945854,150 149.9979,148.139926 149.9979,145.859836 C150.064095,143.759753 148.839487,124.829002 105.878924,101.698085 C105.283168,101.278068 99.9213724,97.0779019 99.9213724,87.3575166 Z" id="Combined-Shape" fill="#FFB247"></path>
                <use id="Path-4" stroke="#F3F3F5" mask="url(#mask-2)" stroke-width="4" fill="#FFB247" xlink:href="#path-1"></use>
                <g id="Group-56" transform="translate(72.000000, 138.125000)">
                    <path d="M20.1959747,6.91751847 L18.6034951,2.72067679 C18.5119168,2.46797509 18.6342261,2.32139638 18.8997418,2.32139638 L19.2261048,2.32139638 C19.4406071,2.32139638 19.5831989,2.39937625 19.6551094,2.60400013 L20.8388669,5.8562886 L21.8800327,2.75995988 C21.9414947,2.56530335 22.0840865,2.45800774 22.2881402,2.45800774 L22.513091,2.45800774 C22.7275933,2.45800774 22.8597365,2.56530335 22.9211985,2.75995988 L23.9728128,5.8562886 L25.1461218,2.60400013 C25.2180323,2.39937625 25.3606241,2.32139638 25.5751264,2.32139638 L25.9014894,2.32139638 C26.1774537,2.32139638 26.2899291,2.46797509 26.1977361,2.72067679 L24.615705,6.91751847 C24.5339606,7.12214235 24.4012027,7.19953591 24.1867005,7.19953591 L23.8498889,7.19953591 C23.6360012,7.19953591 23.5026287,7.10220765 23.4313329,6.90755112 L22.4006156,3.86985389 L21.3698984,6.90755112 C21.3084364,7.10220765 21.1658446,7.19953591 20.9513424,7.19953591 L20.6145308,7.19953591 C20.4000285,7.19953591 20.2672706,7.112175 20.1959747,6.91751847" id="Fill-43" fill="#1E2225"></path>
                    <path d="M30.9136516,4.76550845 C30.9136516,3.84030362 30.1785665,3.09099325 29.2498761,3.09099325 C28.3414682,3.09099325 27.5965491,3.84030362 27.5965491,4.76550845 C27.5965491,5.69071328 28.3414682,6.43064262 29.2498761,6.43064262 C30.1785665,6.43064262 30.9136516,5.69071328 30.9136516,4.76550845 M26.5553833,4.7555411 C26.5553833,3.3536623 27.7594233,2.21445255 29.2498761,2.21445255 C30.7501628,2.21445255 31.9646513,3.36362965 31.9646513,4.7555411 C31.9646513,6.16797357 30.7501628,7.30718332 29.2498761,7.30718332 C27.7594233,7.30718332 26.5553833,6.17735461 26.5553833,4.7555411" id="Fill-45" fill="#1E2225"></path>
                    <path d="M32.8634712,6.84938869 L32.8634712,2.67189539 C32.8634712,2.44850944 33.006063,2.32127911 33.2408477,2.32127911 L33.5469283,2.32127911 C33.781713,2.32127911 33.9144709,2.44850944 33.9144709,2.67189539 L33.9144709,3.41241105 C34.0884083,2.63319861 34.6698385,2.21456981 35.2826143,2.21456981 L35.5069505,2.22395085 C35.7214528,2.25326659 35.7521838,2.41860738 35.7521838,2.61385022 L35.7521838,2.89586767 C35.7521838,3.13918833 35.6501569,3.23651659 35.4762195,3.19781981 C35.3846412,3.17847142 35.2924483,3.16850407 35.2008699,3.16850407 C34.8333273,3.16850407 33.9144709,3.34381221 33.9144709,5.34021427 L33.9144709,6.84938869 C33.9144709,7.07336096 33.781713,7.20000496 33.5469283,7.20000496 L33.2408477,7.20000496 C33.006063,7.20000496 32.8634712,7.07336096 32.8634712,6.84938869" id="Fill-47" fill="#1E2225"></path>
                    <path d="M40.7535902,4.75577563 C40.7535902,3.8505055 40.1617114,3.08126042 39.1205456,3.08126042 C38.1199447,3.08126042 37.4260391,3.79187402 37.4155906,4.75577563 C37.4260391,5.71967724 38.1199447,6.43029083 39.1205456,6.43029083 C40.1617114,6.43029083 40.7535902,5.6710131 40.7535902,4.75577563 M37.4364876,6.43029083 L37.4364876,6.84950595 C37.4364876,7.07347822 37.3037298,7.19953591 37.0683304,7.19953591 L36.7622498,7.19953591 C36.5280797,7.19953591 36.3848733,7.07347822 36.3848733,6.84950595 L36.3848733,0.510269812 C36.3848733,0.28629754 36.5280797,0.160239848 36.7622498,0.160239848 L37.0683304,0.160239848 C37.3037298,0.160239848 37.4364876,0.28629754 37.4364876,0.510269812 L37.4364876,3.09122777 C37.915891,2.43807303 38.5895142,2.21468708 39.2735859,2.21468708 C40.7941551,2.21468708 41.8045899,3.35331051 41.8045899,4.75577563 C41.8045899,6.15824074 40.7941551,7.30741784 39.2735859,7.30741784 C38.5895142,7.30741784 37.915891,7.08285926 37.4364876,6.43029083" id="Fill-49" fill="#1E2225"></path>
                    <path d="M47.0924705,4.75577563 C47.0924705,3.8505055 46.5005917,3.08126042 45.4594259,3.08126042 C44.458825,3.08126042 43.7649194,3.79187402 43.7544709,4.75577563 C43.7649194,5.71967724 44.458825,6.43029083 45.4594259,6.43029083 C46.5005917,6.43029083 47.0924705,5.6710131 47.0924705,4.75577563 M43.7753679,6.43029083 L43.7753679,6.84950595 C43.7753679,7.07347822 43.6426101,7.19953591 43.4072107,7.19953591 L43.1011301,7.19953591 C42.86696,7.19953591 42.7237536,7.07347822 42.7237536,6.84950595 L42.7237536,0.510269812 C42.7237536,0.28629754 42.86696,0.160239848 43.1011301,0.160239848 L43.4072107,0.160239848 C43.6426101,0.160239848 43.7753679,0.28629754 43.7753679,0.510269812 L43.7753679,3.09122777 C44.2547713,2.43807303 44.9283945,2.21468708 45.6124662,2.21468708 C47.1330354,2.21468708 48.1434702,3.35331051 48.1434702,4.75577563 C48.1434702,6.15824074 47.1330354,7.30741784 45.6124662,7.30741784 C44.9283945,7.30741784 44.2547713,7.08285926 43.7753679,6.43029083" id="Fill-51" fill="#1E2225"></path>
                    <g id="Group-55" transform="translate(48.116365, 1.758945)">
                        <mask id="mask-4" fill="white">
                            <use xlink:href="#path-3"></use>
                        </mask>
                        <g id="Clip-54"></g>
                        <path d="M1.52819043,7.21325568 L2.31428903,5.25613672 L0.354266797,0.971347809 C0.241791391,0.728027147 0.364100712,0.56268636 0.640064958,0.56268636 L1.04817244,0.56268636 C1.26267472,0.56268636 1.39543257,0.650633587 1.46672846,0.835322764 L2.88527073,4.13627536 L4.19195222,0.845290116 C4.26386273,0.650633587 4.41690303,0.56268636 4.63079069,0.56268636 L5.04934671,0.56268636 C5.32531095,0.56268636 5.44762027,0.718646109 5.33514487,0.971347809 L2.48761178,7.34928072 C2.40586736,7.54393725 2.27310951,7.62191713 2.05860723,7.62191713 L1.81398859,7.62191713 C1.53863896,7.62191713 1.42616356,7.45657634 1.52819043,7.21325568" id="Fill-53" fill="#1E2225" mask="url(#mask-4)"></path>
                    </g>
                    <path d="M9.09275923,0.704361332 C8.80437932,1.0833637 8.65250711,1.59530845 8.65250711,2.18480291 L8.65250711,2.18480291 C8.65250711,3.12706111 9.06439399,4.28739145 9.79834452,5.08971032 L9.79834452,5.08971032 C9.25822312,5.80398402 8.5242726,6.29493786 8.0385179,6.29493786 L8.0385179,6.29493786 C7.55335415,6.29493786 7.82341485,5.80398402 6.27928223,5.08971032 L6.27928223,5.08971032 L6.27928223,5.02148989 C5.5075114,4.69030013 6.00331211,4.6792216 5.81007393,3.91771837 L5.81007393,3.91771837 L5.5075114,3.91771837 L5.5075114,3.97777567 C5.5075114,3.30898225 5.13403577,2.57779921 5.13403577,1.9090058 L5.13403577,1.9090058 C5.13403577,1.55041124 5.29359023,1.38539944 5.34086562,1.31892826 L5.34086562,1.31892826 C5.36804898,1.28102802 5.45787223,1.21105835 5.65642889,1.21105835 L5.65642889,1.21105835 C5.98026535,1.21105835 6.13450133,1.33642067 6.20600537,1.43087973 L6.20600537,1.43087973 C6.33128517,1.59589153 6.41047146,1.86352551 6.41047146,2.18480291 L6.41047146,2.18480291 C6.41047146,2.57080225 6.30646559,3.02268969 6.11795494,3.44484002 L6.11795494,3.44484002 C6.30232899,3.89497823 6.55347953,4.32704093 6.81408515,4.68971705 L6.81408515,4.68971705 C7.34770618,3.92996306 7.64554117,2.98070789 7.64554117,2.18480291 L7.64554117,2.18480291 C7.64554117,1.59530845 7.49485085,1.0833637 7.20647094,0.704361332 L7.20647094,0.704361332 C6.9624117,0.383083936 6.50206754,0 5.69602204,0 L5.69602204,0 C5.15649158,0 4.70323872,0.220987537 4.41663163,0.622730052 L4.41663163,0.622730052 C4.18439125,0.948672092 4.06620276,1.38131788 4.06620276,1.9090058 L4.06620276,1.9090058 C4.06620276,2.74805874 4.3687653,3.80518382 4.86929355,4.77484681 L4.86929355,4.77484681 C4.74164998,4.81799477 4.60750605,4.84248416 4.46981646,4.84248416 L4.46981646,4.84248416 C3.32397905,4.84248416 1.4022342,4.38651515 1.4022342,1.33175603 L1.4022342,1.33175603 C1.4022342,0.99706778 1.12803691,0.726518394 0.789426884,0.726518394 L0.789426884,0.726518394 C0.450225919,0.726518394 0.176028623,0.99706778 0.176028623,1.33175603 L0.176028623,1.33175603 C0.176028623,4.24366041 1.8212124,6.05237635 4.46981646,6.05237635 L4.46981646,6.05237635 C4.84861056,6.05237635 5.19963038,5.96841274 5.51933024,5.8226426 L5.51933024,5.8226426 C6.24146192,6.795221 7.16865062,7.50483005 8.15020603,7.50483005 L8.15020603,7.50483005 C9.13117049,7.50483005 10.0577683,6.795221 10.7798999,5.8226426 L10.7798999,5.8226426 C11.0995998,5.96841274 11.4512105,6.05237635 11.8300047,6.05237635 L11.8300047,6.05237635 C14.4786087,6.05237635 16.1237925,4.24366041 16.1237925,1.33175603 L16.1237925,1.33175603 C16.1237925,0.99706778 15.8495952,0.726518394 15.5103942,0.726518394 L15.5103942,0.726518394 C15.1717842,0.726518394 14.896996,0.99706778 14.896996,1.33175603 L14.896996,1.33175603 C14.896996,4.38651515 12.9758421,4.84248416 11.8300047,4.84248416 L11.8300047,4.84248416 C11.6917241,4.84248416 11.5581711,4.81799477 11.4299366,4.77484681 L11.4299366,4.77484681 C11.0546882,4.64715217 10.7290789,4.34978107 10.4732008,3.97777567 L10.4732008,3.97777567 C10.100907,3.43784306 9.87930363,2.74164485 9.87930363,2.18480291 L9.87930363,2.18480291 C9.87930363,1.86352551 9.9484439,1.59589153 10.0743146,1.43087973 L10.0743146,1.43087973 C10.1458187,1.33642067 10.2787807,1.21105835 10.6032081,1.21105835 L10.6032081,1.21105835 C10.8023557,1.21105835 10.8519949,1.28102802 10.8791783,1.31892826 L10.8791783,1.31892826 C10.9264536,1.38539944 11.0062309,1.55041124 11.0062309,1.9090058 L11.0062309,1.9090058 C11.0062309,2.39529499 10.8939518,2.91365362 10.7083959,3.41801832 L10.7083959,3.41801832 C10.9394544,3.86057647 11.2733369,4.22966648 11.641494,4.32937325 L11.641494,4.32937325 C12.0137878,3.48973723 12.2336183,2.62094718 12.2336183,1.9090058 L12.2336183,1.9090058 C12.2336183,1.38131788 12.1154299,0.948672092 11.8831895,0.622730052 L11.8831895,0.622730052 C11.5965824,0.220987537 11.1421476,0 10.6032081,0 L10.6032081,0 C9.79775357,0 9.33681846,0.383083936 9.09275923,0.704361332" id="Fill-41" fill="url(#linearGradient-5)"></path>
                </g>
            </g>
        </g>
    </g>
</svg>

<svg xmlns="http://www.w3.org/2000/svg" width="150" height="150" xmlns:xlink="http://www.w3.org/1999/xlink"><defs><path id="a" d="M80.1776 71.4323c-1.2234.4893-3.0803.7865-5.0526.7865-1.9723 0-3.8292-.2972-5.0526-.7865-.2694-.1078-.4784-.213-.623-.3006C69.1543 69.3547 67.6103 68 65.75 68 63.679 68 62 69.679 62 71.75c0 10.625 26.25 10.625 26.25 0 0-2.071-1.679-3.75-3.75-3.75-1.8605 0-3.4045 1.3548-3.6993 3.1317-.1447.0877-.3537.1928-.623.3006z"/><mask id="b" width="26.25" height="11.7188" x="0" y="0" fill="#fff"><use xlink:href="#a"/></mask><path id="c" d="M5.3767 7.622V.5626H.3127V7.622z"/><linearGradient id="e" x1="0%" x2="99.9875%" y1="49.9979%" y2="49.9979%"><stop stop-color="#FFB247" offset="0%"/><stop stop-color="#FFCB33" offset="100%"/></linearGradient></defs><g fill="none" fill-rule="evenodd"><ellipse cx="100" cy="100" fill="#F3F3F5" rx="50" ry="50"/><path fill="#FFB247" d="M90.5548 117.5387c-.0662.24-2.019 6.1203-15.5228 6.1203-13.636 0-15.7875-6.6303-15.953-7.1403l-4.5343-13.3806c1.721-2.46 3.376-5.85 4.1703-10.2903 4.3358 2.13 9.6314 3.5402 16.1185 3.5402 6.6195 0 11.9813-1.4402 16.3832-3.6603.7944 4.5002 2.4823 7.9503 4.2034 10.4404l-4.8652 14.3707zm-42.431-99.454c3.6407-5.13 10.227-6.1202 20.355-6.1202l5.461.03c15.3242 0 25.0217-1.68 29.9533-2.88 1.5557 3.39 3.078 10.2003-2.9125 19.3507-1.357 1.74-8.7047 4.4702-20.057 4.7102-7.9435.18-14.894-.96-18.601-3.0602-1.059-.6-2.3498-.78-3.5413-.51s-2.2507.99-2.8464 1.98c-.033.06-2.8464 4.1703-9.0687 5.4303-1.1252-5.5202-1.9527-14.4306 1.2578-18.9307zm26.776 70.0228c-17.939 0-23.698-14.3105-25.3528-20.4608-1.8204-6.7502-2.019-16.9206-1.9528-22.3208 6.5864-.9902 11.0546-4.0803 13.603-6.5104 5.1964 1.89 12.2462 2.85 19.958 2.64 6.851-.15 14.662-1.23 20.454-3.6.1987 1.23.4304 2.49.5628 3.75 0 .15.662 16.4708-1.8866 26.041-1.688 6.1204-7.48 20.461-25.3857 20.461zM63.5 58c2.4853 0 4.5-2.0147 4.5-4.5S65.9853 49 63.5 49 59 51.0147 59 53.5s2.0147 4.5 4.5 4.5zm23 0c2.4853 0 4.5-2.0147 4.5-4.5S88.9853 49 86.5 49 82 51.0147 82 53.5s2.0147 4.5 4.5 4.5zm13.4214 29.3575c0-.33-.1324-.6-.1986-.9 5.9575-6.1503 8.506-13.5306 9.3997-16.8607 2.8795-10.6804 2.1844-27.601 2.1182-28.561-.364-3.3603-.9267-6.5704-1.688-9.5105 10.6905-17.4907.4634-29.4612.033-29.9712-1.2576-1.44-3.475-1.95-5.3286-1.23-.099.03-9.3003 3.3902-30.3172 3.3902l-5.461-.03c-10.161 0-21.5465.78-28.0667 9.9304-6.2223 8.7603-3.045 23.701-1.9527 27.961-.0993 2.4002-.5296 17.9708 2.1513 28.0212.9268 3.39 3.5415 10.8904 9.6645 17.1007-.033.21-.1323.42-.1323.66 0 9.5704-5.1963 13.8006-5.8582 14.3106C1.2577 124.709 0 143.76 0 145.86c0 2.25 1.986 4.0502 4.4682 4.1102 2.5485 0 4.5674-1.8 4.6667-4.0202 0-.15 1.2245-15.9306 38.062-36.2114l3.012 8.9104c.1323.54 3.5083 13.3205 24.79 13.3205 19.6268 0 23.731-10.2604 24.3597-12.3005l3.409-9.9604c36.5066 20.0408 38.0622 35.7614 38.0953 36.2114.0662 2.25 2.085 4.0802 4.5674 4.0802 2.5155 0 4.5675-1.86 4.5675-4.1402.066-2.1-1.1585-21.0308-44.119-44.1617-.5958-.42-5.9576-4.62-5.9576-14.3405z"/><use fill="#FFB247" stroke="#F3F3F5" stroke-width="4" mask="url(#b)" xlink:href="#a"/><path fill="#1E2225" d="M92.196 145.0425l-1.5925-4.1968c-.0916-.2527.0307-.3993.2962-.3993h.3264c.2146 0 .3572.078.429.2826l1.184 3.2523 1.041-3.0963c.0615-.1947.204-.302.408-.302h.225c.2146 0 .3467.1073.4082.302l1.0516 3.0963 1.1733-3.2523c.072-.2046.2146-.2826.429-.2826h.3265c.276 0 .3884.1466.2962.3993l-1.582 4.1968c-.0817.2046-.2145.282-.429.282H95.85c-.214 0-.3474-.0973-.4187-.292l-1.0307-3.0376-1.0307 3.0376c-.0616.1946-.2042.292-.4187.292h-.3368c-.2145 0-.3472-.0874-.4185-.282M102.9137 142.8905c0-.9252-.735-1.6745-1.6638-1.6745-.9085 0-1.6535.7493-1.6535 1.6745 0 .9252.745 1.665 1.6534 1.665.9286 0 1.6637-.7398 1.6637-1.665m-4.3583-.01c0-1.4018 1.204-2.541 2.6945-2.541 1.5002 0 2.7147 1.149 2.7147 2.541 0 1.4125-1.2145 2.5517-2.7148 2.5517-1.4906 0-2.6946-1.1298-2.6946-2.5517M104.8635 144.9744v-4.1775c0-.2235.1426-.3507.3773-.3507h.306c.235 0 .3677.1272.3677.3506v.7404c.174-.7792.7553-1.1978 1.368-1.1978l.2245.0094c.2145.0293.2452.1946.2452.39v.282c0 .2432-.102.3405-.276.3018-.0916-.0193-.1838-.0293-.2753-.0293-.3677 0-1.2865.1753-1.2865 2.1717v1.5092c0 .224-.1328.3506-.3676.3506h-.3062c-.2347 0-.3773-.1266-.3773-.3506M112.7536 142.8808c0-.9053-.592-1.6745-1.633-1.6745-1.0007 0-1.6946.7106-1.705 1.6745.0104.964.7043 1.6745 1.705 1.6745 1.041 0 1.633-.7593 1.633-1.6745m-3.317 1.6745v.4192c0 .224-.133.35-.3683.35h-.306c-.2342 0-.3774-.126-.3774-.35v-6.3392c0-.224.143-.35.3772-.35h.306c.2355 0 .3683.126.3683.35v2.581c.4794-.6532 1.153-.8766 1.837-.8766 1.5207 0 2.531 1.1386 2.531 2.541 0 1.4025-1.0103 2.5517-2.531 2.5517-.684 0-1.3576-.2245-1.837-.877M119.0925 142.8808c0-.9053-.592-1.6745-1.633-1.6745-1.0007 0-1.6946.7106-1.705 1.6745.0104.964.7043 1.6745 1.705 1.6745 1.041 0 1.633-.7593 1.633-1.6745m-3.317 1.6745v.4192c0 .224-.133.35-.3683.35h-.306c-.2342 0-.3774-.126-.3774-.35v-6.3392c0-.224.1432-.35.3773-.35h.3062c.2354 0 .3682.126.3682.35v2.581c.4794-.6532 1.153-.8766 1.837-.8766 1.5206 0 2.531 1.1386 2.531 2.541 0 1.4025-1.0104 2.5517-2.531 2.5517-.684 0-1.3576-.2245-1.837-.877"/><g transform="translate(120.116 139.884)"><mask id="d" fill="#fff"><use xlink:href="#c"/></mask><path fill="#1E2225" d="M1.5282 7.2133l.786-1.9572L.3543.9714C.242.728.3643.5627.6403.5627h.408c.2145 0 .3472.088.4185.2726l1.4186 3.301L4.192.8453c.072-.1947.225-.2826.4388-.2826h.4185c.276 0 .3983.156.2858.4086l-2.8474 6.378c-.0817.1946-.2145.2726-.429.2726H1.814c-.2754 0-.3878-.1654-.2858-.4087" mask="url(#d)"/></g><path fill="url(#e)" d="M9.0928.7044c-.2884.379-.4403.891-.4403 1.4804 0 .9423.412 2.1026 1.1458 2.905-.54.7142-1.274 1.205-1.7598 1.205-.485 0-.215-.4908-1.7592-1.205v-.0683c-.7718-.3312-.276-.3423-.4692-1.1038h-.3025v.06c0-.6687-.3735-1.4-.3735-2.0687 0-.3586.1596-.5236.207-.59.027-.038.117-.108.3154-.108.324 0 .478.1254.5496.22.1253.165.2045.4325.2045.7538 0 .386-.104.838-.2925 1.26.1843.4502.4355.8822.696 1.245.5337-.7598.8315-1.709.8315-2.505 0-.5895-.1506-1.1014-.439-1.4804C6.9625.383 6.502 0 5.696 0c-.5395 0-.9928.221-1.2794.6227-.2322.326-.3504.7586-.3504 1.2863 0 .839.3026 1.8962.803 2.8658-.1276.0432-.2617.0677-.3994.0677-1.1458 0-3.0676-.456-3.0676-3.5107 0-.3347-.2742-.6053-.6128-.6053-.3392 0-.6134.2706-.6134.6053 0 2.912 1.6452 4.7206 4.2938 4.7206.3788 0 .7298-.084 1.0495-.2298.7222.9726 1.6494 1.6822 2.631 1.6822.981 0 1.9075-.7096 2.6296-1.6822.3196.1458.6712.2298 1.05.2298 2.6486 0 4.2938-1.8087 4.2938-4.7206 0-.3347-.2742-.6053-.6134-.6053-.3386 0-.6134.2706-.6134.6053 0 3.0547-1.9212 3.5107-3.067 3.5107-.1383 0-.2718-.0245-.4-.0677-.3753-.1276-.701-.425-.9568-.797-.3723-.54-.594-1.2362-.594-1.793 0-.3213.0692-.589.195-.754.0716-.0944.2046-.2197.529-.2197.1992 0 .2488.07.276.108.0473.0664.127.2314.127.59 0 .4863-.1122 1.0047-.2978 1.509.231.4426.565.8117.933.9114.3724-.8397.5922-1.7085.5922-2.4204 0-.5277-.1182-.9603-.3504-1.2863C11.5966.221 11.1422 0 10.6032 0c-.8054 0-1.2664.383-1.5104.7044" transform="translate(72 138.125)"/></g></svg>
